X: 24268
T: Lorna's
R: reel
M: 4/4
K: Fmajor
CFFE FAcA|cdcA dcAF|CFFE FAcA|cdcA G2FD|
CFFE FAcA|cdcA dcAc|dcfd cdcA|GBAG F3D:|
cffe fgaf|gfga gfdf|cffe fgaf|gfga f2fd|
cffe fgaf|gfga gfdf|cdfc dfcA|GBAG F3A:|

